gos-pohoronq/img/brain.svg

<svg width="89" height="88" viewBox="0 0 89 88" fill="none" xmlns="http://www.w3.org/2000/svg">
<path d="M88.2346 38.547C88.2346 34.871 86.5756 31.426 83.7486 29.133C83.8716 28.546 83.9326 27.982 83.9326 27.427C83.9326 22.848 80.5466 19.045 76.1476 18.39C76.2486 17.864 76.2966 17.348 76.2966 16.834C76.2966 11.959 72.4546 7.976 67.6416 7.723C67.5626 7.71 67.4826 7.699 67.3996 7.699C67.3596 7.699 67.3206 7.704 67.2796 7.705C67.2396 7.704 67.2006 7.699 67.1596 7.699C66.7016 7.699 66.2406 7.74 65.7536 7.825C64.9076 3.34 61.0006 0 56.3166 0C51.0056 0 46.6846 4.321 46.6846 9.633V75.551C46.6846 82.274 52.1536 87.742 58.8756 87.742C63.3356 87.742 67.3836 85.329 69.5216 81.496C70.0006 81.6 70.4606 81.664 70.9226 81.694C73.8256 81.879 76.6526 80.928 78.8486 79.001C81.0446 77.074 82.3586 74.407 82.5486 71.491C82.6276 70.276 82.4916 69.057 82.1456 67.853C85.9416 65.162 88.1726 60.901 88.1726 56.232C88.1726 52.847 86.9536 49.597 84.7276 47.008C86.9676 44.74 88.2346 41.706 88.2346 38.547ZM85.1746 56.234C85.1746 59.718 83.5926 62.914 80.8796 65.053C78.8716 61.857 75.3096 59.816 71.4526 59.816C70.6246 59.816 69.9526 60.488 69.9526 61.316C69.9526 62.144 70.6246 62.816 71.4526 62.816C74.7936 62.816 77.8366 64.909 79.0346 68.024C79.4446 69.112 79.6266 70.213 79.5556 71.298C79.4176 73.414 78.4646 75.349 76.8706 76.747C75.2766 78.146 73.2296 78.841 71.1186 78.701C70.5246 78.662 69.9106 78.534 69.1856 78.299C68.4456 78.057 67.6446 78.423 67.3396 79.139C65.8946 82.543 62.5716 84.743 58.8746 84.743C53.8066 84.743 49.6836 80.62 49.6836 75.552V9.634C49.6836 5.977 52.6586 3.001 56.3156 3.001C59.7136 3.001 62.5096 5.563 62.8736 8.909C60.1226 10.485 58.2616 13.444 58.2616 16.835C58.2616 17.664 58.9336 18.335 59.7616 18.335C60.5896 18.335 61.2616 17.664 61.2616 16.835C61.2616 13.492 63.9506 10.77 67.2776 10.705C70.6046 10.77 73.2936 13.492 73.2936 16.834C73.2936 17.456 73.1766 18.1 72.9346 18.805C72.8776 18.971 72.8506 19.145 72.8536 19.32C72.8546 19.361 72.8566 19.399 72.8606 19.435C72.8546 19.456 72.8506 19.47 72.8506 19.47C72.7326 19.935 72.8446 20.429 73.1516 20.798C73.4586 21.167 73.9166 21.367 74.4026 21.336C74.5066 21.329 74.6106 21.316 74.7946 21.29C78.1776 21.29 80.9306 24.043 80.9306 27.426C80.9306 27.998 80.8276 28.585 80.6086 29.275C80.4056 29.91 80.6466 30.603 81.1996 30.975C83.6336 32.614 85.1086 35.304 85.2136 38.217C85.2136 38.221 85.2126 38.225 85.2126 38.229C85.2126 43.259 81.1206 47.352 76.0906 47.352C71.0606 47.352 66.9676 43.259 66.9676 38.229C66.9676 37.4 66.2956 36.729 65.4676 36.729C64.6396 36.729 63.9676 37.4 63.9676 38.229C63.9676 44.914 69.4056 50.352 76.0906 50.352C78.3186 50.352 80.4006 49.737 82.1966 48.684C84.1166 50.774 85.1746 53.447 85.1746 56.234Z" fill="white"/>
<path d="M32.416 0.000976562C27.732 0.000976562 23.826 3.34098 22.981 7.82598C22.493 7.74098 22.032 7.69998 21.574 7.69998C21.534 7.69998 21.495 7.70498 21.454 7.70598C21.414 7.70498 21.375 7.69998 21.334 7.69998C21.251 7.69998 21.171 7.71098 21.092 7.72398C16.279 7.97698 12.438 11.96 12.438 16.835C12.438 17.349 12.487 17.865 12.587 18.391C8.188 19.046 4.802 22.849 4.802 27.428C4.802 27.982 4.863 28.546 4.986 29.134C2.159 31.427 0.5 34.872 0.5 38.548C0.5 41.707 1.766 44.741 4.005 47.011C1.778 49.6 0.559 52.85 0.559 56.235C0.559 60.904 2.79 65.164 6.586 67.856C6.239 69.06 6.104 70.279 6.184 71.495C6.374 74.41 7.687 77.077 9.883 79.004C12.079 80.932 14.898 81.883 17.809 81.697C18.264 81.667 18.728 81.601 19.209 81.498C21.347 85.332 25.395 87.745 29.855 87.745C36.577 87.745 42.046 82.276 42.046 75.554V9.63398C42.048 4.32198 37.727 0.000976562 32.416 0.000976562ZM39.048 75.552C39.048 80.62 34.925 84.743 29.857 84.743C26.16 84.743 22.837 82.543 21.393 79.139C21.152 78.572 20.6 78.225 20.012 78.225C19.858 78.225 19.701 78.248 19.547 78.299C18.823 78.534 18.209 78.662 17.614 78.701C15.495 78.84 13.456 78.145 11.863 76.747C10.269 75.349 9.316 73.414 9.178 71.298C9.102 70.138 9.303 68.962 9.776 67.803C9.783 67.786 9.781 67.767 9.787 67.75C11.129 64.694 14.012 62.797 17.384 62.797C18.213 62.797 18.884 62.125 18.884 61.297C18.884 60.469 18.213 59.797 17.384 59.797C13.446 59.797 9.883 61.804 7.836 65.036C5.135 62.897 3.559 59.709 3.559 56.234C3.559 53.447 4.619 50.774 6.537 48.685C8.333 49.738 10.416 50.353 12.644 50.353C19.329 50.353 24.767 44.915 24.767 38.23C24.767 37.401 24.096 36.73 23.267 36.73C22.438 36.73 21.767 37.401 21.767 38.23C21.767 43.26 17.675 47.353 12.644 47.353C7.613 47.353 3.521 43.26 3.521 38.23C3.521 38.228 3.52 38.226 3.52 38.224C3.623 35.309 5.098 32.617 7.533 30.976C8.086 30.604 8.326 29.912 8.124 29.277C7.904 28.586 7.802 27.999 7.802 27.427C7.802 24.051 10.543 21.302 13.997 21.302C14.004 21.302 14.012 21.302 14.019 21.302C14.122 21.316 14.225 21.329 14.33 21.336C14.815 21.366 15.278 21.165 15.584 20.794C15.891 20.422 16.001 19.926 15.878 19.46C15.878 19.459 15.875 19.446 15.87 19.429C15.873 19.394 15.876 19.362 15.877 19.334C15.882 19.154 15.855 18.975 15.796 18.805C15.554 18.098 15.437 17.453 15.437 16.833C15.437 13.491 18.125 10.768 21.453 10.704C24.781 10.769 27.469 13.491 27.469 16.834C27.469 17.663 28.14 18.334 28.969 18.334C29.798 18.334 30.469 17.663 30.469 16.834C30.469 13.443 28.608 10.484 25.857 8.90798C26.221 5.56198 29.017 2.99998 32.415 2.99998C36.072 2.99998 39.047 5.97598 39.047 9.63298V75.552H39.048Z" fill="white"/>
</svg>

<svg width="89" height="88" fill="none" xmlns="http://www.w3.org/2000/svg"><path d="M88.235 38.547c0-3.676-1.66-7.121-4.486-9.414a8.276 8.276 0 00.184-1.706c0-4.579-3.386-8.382-7.785-9.037a8.212 8.212 0 00.149-1.556c0-4.875-3.842-8.858-8.655-9.111a1.481 1.481 0 00-.242-.024c-.04 0-.08.005-.12.006-.04-.001-.08-.006-.12-.006-.458 0-.92.041-1.406.126A9.594 9.594 0 0056.317 0c-5.311 0-9.632 4.321-9.632 9.633v65.918c0 6.723 5.469 12.191 12.19 12.191 4.46 0 8.509-2.413 10.647-6.246a9.43 9.43 0 001.4.198c2.904.185 5.73-.766 7.927-2.693a10.866 10.866 0 003.7-7.51 10.62 10.62 0 00-.403-3.638c3.796-2.691 6.027-6.952 6.027-11.621 0-3.385-1.22-6.635-3.445-9.224 2.24-2.268 3.507-5.302 3.507-8.461zm-3.06 17.687c0 3.484-1.582 6.68-4.295 8.819-2.008-3.196-5.57-5.237-9.427-5.237a1.5 1.5 0 000 3 8.168 8.168 0 017.582 5.208c.41 1.088.592 2.189.52 3.274a7.881 7.881 0 01-2.684 5.449 7.881 7.881 0 01-5.752 1.954c-.594-.039-1.208-.167-1.933-.402a1.5 1.5 0 00-1.846.84 9.182 9.182 0 01-8.465 5.604c-5.068 0-9.191-4.123-9.191-9.191V9.634a6.64 6.64 0 016.632-6.633c3.398 0 6.194 2.562 6.558 5.908-2.751 1.576-4.612 4.535-4.612 7.926a1.5 1.5 0 103 0c0-3.343 2.689-6.065 6.016-6.13 3.327.065 6.016 2.787 6.016 6.129 0 .622-.117 1.266-.36 1.971a1.505 1.505 0 00-.073.63l-.01.035a1.5 1.5 0 001.552 1.866 5.31 5.31 0 00.392-.046 6.143 6.143 0 016.136 6.136c0 .572-.103 1.159-.322 1.849a1.499 1.499 0 00.59 1.7 9.106 9.106 0 014.015 7.242l-.001.012c0 5.03-4.092 9.123-9.122 9.123s-9.123-4.093-9.123-9.123a1.5 1.5 0 10-3 0c0 6.685 5.438 12.123 12.123 12.123 2.228 0 4.31-.615 6.106-1.668 1.92 2.09 2.978 4.763 2.978 7.55zM32.416.001a9.591 9.591 0 00-9.435 7.825 8.126 8.126 0 00-1.407-.126c-.04 0-.079.005-.12.006-.04-.001-.079-.006-.12-.006-.083 0-.163.011-.242.024-4.813.253-8.654 4.236-8.654 9.111 0 .514.049 1.03.149 1.556-4.399.655-7.785 4.458-7.785 9.037 0 .554.061 1.118.184 1.706A12.109 12.109 0 00.5 38.548c0 3.159 1.266 6.193 3.505 8.463C1.778 49.6.559 52.85.559 56.235c0 4.669 2.231 8.929 6.027 11.621a10.574 10.574 0 00-.402 3.639 10.864 10.864 0 003.699 7.509 10.885 10.885 0 007.926 2.693c.455-.03.919-.096 1.4-.199a12.172 12.172 0 0010.646 6.247c6.722 0 12.191-5.469 12.191-12.191V9.634c.002-5.312-4.319-9.633-9.63-9.633zm6.632 75.551c0 5.068-4.123 9.191-9.191 9.191a9.18 9.18 0 01-8.464-5.604 1.5 1.5 0 00-1.846-.84c-.724.235-1.338.363-1.933.402a7.874 7.874 0 01-5.751-1.954 7.881 7.881 0 01-2.685-5.449c-.076-1.16.125-2.336.598-3.495.007-.017.005-.036.011-.053 1.342-3.056 4.225-4.953 7.597-4.953a1.5 1.5 0 100-3 11.264 11.264 0 00-9.548 5.239c-2.701-2.139-4.277-5.327-4.277-8.802 0-2.787 1.06-5.46 2.978-7.549a12.035 12.035 0 006.107 1.668c6.685 0 12.123-5.438 12.123-12.123a1.5 1.5 0 10-3 0c0 5.03-4.092 9.123-9.123 9.123S3.521 43.26 3.521 38.23l-.001-.006a9.108 9.108 0 014.013-7.248 1.499 1.499 0 00.591-1.699c-.22-.691-.322-1.278-.322-1.85 0-3.376 2.741-6.125 6.195-6.125h.022c.103.014.206.027.311.034a1.499 1.499 0 001.54-1.907c.003-.035.006-.067.007-.095a1.486 1.486 0 00-.081-.529c-.242-.707-.359-1.352-.359-1.972 0-3.342 2.688-6.065 6.016-6.129 3.328.065 6.016 2.787 6.016 6.13a1.5 1.5 0 103 0c0-3.391-1.861-6.35-4.612-7.926C26.221 5.562 29.017 3 32.415 3a6.64 6.64 0 016.632 6.633v65.919h.001z" fill="#fff"/></svg>
